places/48/desktop.svg

<svg height="48" viewBox="0 0 12.7 12.7" width="48" xmlns="http://www.w3.org/2000/svg"><defs id="kuyenfoldercolor">
    <style type="text/css" id="current-color-scheme">
      .ColorScheme-Highlight {
        color:#03b2fe;
      }
      </style>
  </defs><g stroke-linecap="round" stroke-linejoin="round" stroke-miterlimit="1.8" stroke-width=".529167" transform="translate(0 -284.29999)"><path d="m.79374999 284.82916h11.11250001c.439737 0 .79375.35402.79375.79375v10.31875c0 .43973-.354013.79375-.79375.79375h-11.11250001c-.4397375 0-.79374999-.35402-.79374999-.79375v-10.31875c0-.43973.35401249-.79375.79374999-.79375z" fill="#363c4d"/><path d="m.79374996 285.09375h11.11250004c.293159 0 .529167.23601.529167.52917v10.31874c0 .29315-.236008.52916-.529167.52916h-11.11250004c-.29315832 0-.52916664-.23601-.52916664-.52916v-10.31874c0-.29316.23600832-.52917.52916664-.52917z" fill="#4b6477"/><path d="m1.3229166 285.62289h10.0541674c.293158 0 .529166.23601.529166.52917v9.26043c0 .29316-.236008.52917-.529166.52917h-10.0541674c-.2931583 0-.52916661-.23601-.52916661-.52917v-9.26043c0-.29316.23600831-.52917.52916661-.52917z" fill="#363c4d"/><path d="m1.3229166 285.88748h10.0541664c.146579 0 .264583.11801.264583.26459v9.26042c0 .14658-.118004.26458-.264583.26458h-10.0541664c-.1465792 0-.2645833-.118-.2645833-.26458v-9.26042c0-.14658.1180041-.26459.2645833-.26459z" style="fill:currentColor"
class="ColorScheme-Highlight"/><path d="m1.3229167 285.88749c-.1465789 0-.2645834.118-.2645834.26458v9.26042c0 .14658.1180045.26458.2645834.26458h10.0541663c.146579 0 .264584-.118.264584-.26458v-9.26042c0-.14658-.118005-.26458-.264584-.26458zm1.5875 1.05833h3.96875c.1465786 0 .2645833.11801.2645833.26459v3.175c0 .14658-.1180047.26458-.2645833.26458h-3.96875c-.1465788 0-.2645834-.118-.2645834-.26458v-3.175c0-.14658.1180046-.26459.2645834-.26459zm4.7625 1.5875h2.1166666c.1465787 0 .2645837.11801.2645837.26459v3.175c0 .14658-.118005.26458-.2645837.26458h-3.96875c-.1465784 0-.2645833-.118-.2645833-.26458v-.79375h1.3229167c.7966776 0 .79375-.79375.79375-.79375zm-6.0854167 4.7625h9.525v1.85209h-9.525z" fill="#fff" fill-opacity=".3"/><path d="m2.9104167 286.94582c-.1465789 0-.2645834.11801-.2645834.26459v3.175c0 .14658.1180045.26458.2645834.26458h3.96875c.1465788 0 .2645833-.118.2645833-.26458v-3.175c0-.14658-.1180045-.26459-.2645833-.26459zm4.7625 1.5875v1.85209s.00293.79375-.79375.79375h-1.3229167v.79375c0 .14658.1180047.26458.2645833.26458h3.96875c.1465788 0 .2645837-.118.2645837-.26458v-3.175c0-.14658-.1180049-.26459-.2645837-.26459zm-6.0854167 4.7625v1.85209h9.525v-1.85209z" fill-opacity=".2"/></g></svg>

<?xml version="1.0" encoding="UTF-8" standalone="no"?>
<!-- Created with Inkscape (http://www.inkscape.org/) -->

<svg
   width="48"
   height="48"
   viewBox="0 0 12.7 12.7"
   version="1.1"
   id="svg8"
   inkscape:version="1.2.1 (9c6d41e410, 2022-07-14)"
   sodipodi:docname="stock_folder.svg"
   xml:space="preserve"
   xmlns:inkscape="http://www.inkscape.org/namespaces/inkscape"
   xmlns:sodipodi="http://sodipodi.sourceforge.net/DTD/sodipodi-0.dtd"
   xmlns="http://www.w3.org/2000/svg"
   xmlns:svg="http://www.w3.org/2000/svg"
   xmlns:rdf="http://www.w3.org/1999/02/22-rdf-syntax-ns#"
   xmlns:cc="http://creativecommons.org/ns#"
   xmlns:dc="http://purl.org/dc/elements/1.1/"><defs
     id="defs2"><style
       id="current-color-scheme"
       type="text/css">
      .ColorScheme-Text {
        color:#122036;
      }
      </style><style
       id="current-color-scheme-7"
       type="text/css">
      .ColorScheme-Text {
        color:#122036;
      }
      </style><style
       id="current-color-scheme-5"
       type="text/css">
      .ColorScheme-Text {
        color:#122036;
      }
      </style><style
       type="text/css"
       id="current-color-scheme-9">
      .ColorScheme-Text {
        color:#122036;
      }
      </style><style
       type="text/css"
       id="current-color-scheme-1">
      .ColorScheme-Text {
        color:#122036;
      }
      </style><style
       id="current-color-scheme-10"
       type="text/css">
      .ColorScheme-Text {
        color:#122036;
      }
      </style><style
       type="text/css"
       id="current-color-scheme-6">
      .ColorScheme-Text {
        color:#122036;
      }
      </style><style
       type="text/css"
       id="current-color-scheme-7-1">
      .ColorScheme-Text {
        color:#122036;
      }
      </style><style
       type="text/css"
       id="current-color-scheme-5-2">
      .ColorScheme-Text {
        color:#122036;
      }
      </style><style
       id="current-color-scheme-3"
       type="text/css">
      .ColorScheme-Text {
        color:#122036;
      }
      </style><style
       id="current-color-scheme-7-6"
       type="text/css">
      .ColorScheme-Text {
        color:#122036;
      }
      </style><style
       id="current-color-scheme-5-0"
       type="text/css">
      .ColorScheme-Text {
        color:#122036;
      }
      </style><style
       type="text/css"
       id="current-color-scheme-9-6">
      .ColorScheme-Text {
        color:#122036;
      }
      </style><style
       type="text/css"
       id="current-color-scheme-1-2">
      .ColorScheme-Text {
        color:#122036;
      }
      </style><style
       id="current-color-scheme-10-6"
       type="text/css">
      .ColorScheme-Text {
        color:#122036;
      }
      </style><style
       type="text/css"
       id="current-color-scheme-6-1">
      .ColorScheme-Text {
        color:#122036;
      }
      </style><style
       type="text/css"
       id="current-color-scheme-7-1-8">
      .ColorScheme-Text {
        color:#122036;
      }
      </style><style
       type="text/css"
       id="current-color-scheme-5-2-7">
      .ColorScheme-Text {
        color:#122036;
      }
      </style><style
       id="current-color-scheme-70"
       type="text/css">
      .ColorScheme-Text {
        color:#122036;
      }
      </style><style
       id="current-color-scheme-36"
       type="text/css">
      .ColorScheme-Text {
        color:#122036;
      }
      </style><style
       id="current-color-scheme-8"
       type="text/css">
      .ColorScheme-Text {
        color:#122036;
      }
      </style><style
       id="current-color-scheme-12"
       type="text/css">
      .ColorScheme-Text {
        color:#122036;
      }
      </style><style
       id="current-color-scheme-7-7"
       type="text/css">
      .ColorScheme-Text {
        color:#122036;
      }
      </style><style
       id="current-color-scheme-5-09"
       type="text/css">
      .ColorScheme-Text {
        color:#122036;
      }
      </style><style
       type="text/css"
       id="current-color-scheme-9-3">
      .ColorScheme-Text {
        color:#122036;
      }
      </style><style
       type="text/css"
       id="current-color-scheme-1-6">
      .ColorScheme-Text {
        color:#122036;
      }
      </style><style
       id="current-color-scheme-10-0"
       type="text/css">
      .ColorScheme-Text {
        color:#122036;
      }
      </style><style
       type="text/css"
       id="current-color-scheme-6-6">
      .ColorScheme-Text {
        color:#122036;
      }
      </style><style
       type="text/css"
       id="current-color-scheme-7-1-2">
      .ColorScheme-Text {
        color:#122036;
      }
      </style><style
       type="text/css"
       id="current-color-scheme-5-2-6">
      .ColorScheme-Text {
        color:#122036;
      }
      </style><style
       id="current-color-scheme-3-1"
       type="text/css">
      .ColorScheme-Text {
        color:#122036;
      }
      </style><style
       id="current-color-scheme-7-6-8"
       type="text/css">
      .ColorScheme-Text {
        color:#122036;
      }
      </style><style
       id="current-color-scheme-5-0-7"
       type="text/css">
      .ColorScheme-Text {
        color:#122036;
      }
      </style><style
       type="text/css"
       id="current-color-scheme-9-6-9">
      .ColorScheme-Text {
        color:#122036;
      }
      </style><style
       type="text/css"
       id="current-color-scheme-1-2-2">
      .ColorScheme-Text {
        color:#122036;
      }
      </style><style
       id="current-color-scheme-10-6-0"
       type="text/css">
      .ColorScheme-Text {
        color:#122036;
      }
      </style><style
       type="text/css"
       id="current-color-scheme-6-1-2">
      .ColorScheme-Text {
        color:#122036;
      }
      </style><style
       type="text/css"
       id="current-color-scheme-7-1-8-3">
      .ColorScheme-Text {
        color:#122036;
      }
      </style><style
       type="text/css"
       id="current-color-scheme-5-2-7-7">
      .ColorScheme-Text {
        color:#122036;
      }
      </style><style
       id="current-color-scheme-70-5"
       type="text/css">
      .ColorScheme-Text {
        color:#122036;
      }
      </style><style
       id="current-color-scheme-36-9"
       type="text/css">
      .ColorScheme-Text {
        color:#122036;
      }
      </style><style
       id="current-color-scheme-8-2"
       type="text/css">
      .ColorScheme-Text {
        color:#122036;
      }
      </style><style
       id="current-color-scheme-94"
       type="text/css">
      .ColorScheme-Text {
        color:#122036;
      }
      </style><style
       id="current-color-scheme-7-78"
       type="text/css">
      .ColorScheme-Text {
        color:#122036;
      }
      </style><style
       id="current-color-scheme-5-4"
       type="text/css">
      .ColorScheme-Text {
        color:#122036;
      }
      </style><style
       type="text/css"
       id="current-color-scheme-9-50">
      .ColorScheme-Text {
        color:#122036;
      }
      </style><style
       type="text/css"
       id="current-color-scheme-1-3">
      .ColorScheme-Text {
        color:#122036;
      }
      </style><style
       id="current-color-scheme-10-61"
       type="text/css">
      .ColorScheme-Text {
        color:#122036;
      }
      </style><style
       type="text/css"
       id="current-color-scheme-6-0">
      .ColorScheme-Text {
        color:#122036;
      }
      </style><style
       type="text/css"
       id="current-color-scheme-7-1-6">
      .ColorScheme-Text {
        color:#122036;
      }
      </style><style
       type="text/css"
       id="current-color-scheme-5-2-3">
      .ColorScheme-Text {
        color:#122036;
      }
      </style><style
       id="current-color-scheme-3-2"
       type="text/css">
      .ColorScheme-Text {
        color:#122036;
      }
      </style><style
       id="current-color-scheme-7-6-06"
       type="text/css">
      .ColorScheme-Text {
        color:#122036;
      }
      </style><style
       id="current-color-scheme-5-0-1"
       type="text/css">
      .ColorScheme-Text {
        color:#122036;
      }
      </style><style
       type="text/css"
       id="current-color-scheme-9-6-5">
      .ColorScheme-Text {
        color:#122036;
      }
      </style><style
       type="text/css"
       id="current-color-scheme-1-2-5">
      .ColorScheme-Text {
        color:#122036;
      }
      </style><style
       id="current-color-scheme-10-6-4"
       type="text/css">
      .ColorScheme-Text {
        color:#122036;
      }
      </style><style
       type="text/css"
       id="current-color-scheme-6-1-7">
      .ColorScheme-Text {
        color:#122036;
      }
      </style><style
       type="text/css"
       id="current-color-scheme-7-1-8-6">
      .ColorScheme-Text {
        color:#122036;
      }
      </style><style
       type="text/css"
       id="current-color-scheme-5-2-7-5">
      .ColorScheme-Text {
        color:#122036;
      }
      </style><style
       id="current-color-scheme-70-6"
       type="text/css">
      .ColorScheme-Text {
        color:#122036;
      }
      </style><style
       id="current-color-scheme-36-93"
       type="text/css">
      .ColorScheme-Text {
        color:#122036;
      }
      </style><style
       id="current-color-scheme-8-7"
       type="text/css">
      .ColorScheme-Text {
        color:#122036;
      }
      </style><style
       type="text/css"
       id="current-color-scheme-67">
      .ColorScheme-Text {
        color:#122036;
      }
      </style><style
       type="text/css"
       id="current-color-scheme-7-5">
      .ColorScheme-Text {
        color:#122036;
      }
      </style><style
       type="text/css"
       id="current-color-scheme-5-3">
      .ColorScheme-Text {
        color:#122036;
      }
      </style><style
       id="current-color-scheme-9-5"
       type="text/css">
      .ColorScheme-Text {
        color:#122036;
      }
      </style><style
       id="current-color-scheme-1-6-4"
       type="text/css">
      .ColorScheme-Text {
        color:#122036;
      }
      </style><style
       type="text/css"
       id="current-color-scheme-10-2">
      .ColorScheme-Text {
        color:#122036;
      }
      </style><style
       id="current-color-scheme-6-9"
       type="text/css">
      .ColorScheme-Text {
        color:#122036;
      }
      </style><style
       id="current-color-scheme-7-1-1"
       type="text/css">
      .ColorScheme-Text {
        color:#122036;
      }
      </style><style
       id="current-color-scheme-5-2-2"
       type="text/css">
      .ColorScheme-Text {
        color:#122036;
      }
      </style><style
       type="text/css"
       id="current-color-scheme-3-7">
      .ColorScheme-Text {
        color:#122036;
      }
      </style><style
       type="text/css"
       id="current-color-scheme-7-6-0">
      .ColorScheme-Text {
        color:#122036;
      }
      </style><style
       type="text/css"
       id="current-color-scheme-5-0-9">
      .ColorScheme-Text {
        color:#122036;
      }
      </style><style
       id="current-color-scheme-9-6-3"
       type="text/css">
      .ColorScheme-Text {
        color:#122036;
      }
      </style><style
       id="current-color-scheme-1-2-6"
       type="text/css">
      .ColorScheme-Text {
        color:#122036;
      }
      </style><style
       type="text/css"
       id="current-color-scheme-10-6-0-5">
      .ColorScheme-Text {
        color:#122036;
      }
      </style><style
       id="current-color-scheme-6-1-6"
       type="text/css">
      .ColorScheme-Text {
        color:#122036;
      }
      </style><style
       id="current-color-scheme-7-1-8-2"
       type="text/css">
      .ColorScheme-Text {
        color:#122036;
      }
      </style><style
       id="current-color-scheme-5-2-7-6"
       type="text/css">
      .ColorScheme-Text {
        color:#122036;
      }
      </style></defs><sodipodi:namedview
     id="base"
     pagecolor="#ffffff"
     bordercolor="#666666"
     borderopacity="1.0"
     inkscape:pageopacity="0.0"
     inkscape:pageshadow="2"
     inkscape:zoom="7.919596"
     inkscape:cx="3.4723993"
     inkscape:cy="-3.2198612"
     inkscape:document-units="px"
     inkscape:current-layer="layer1"
     showgrid="true"
     units="px"
     inkscape:showpageshadow="false"
     inkscape:snap-bbox="true"
     inkscape:bbox-paths="true"
     inkscape:bbox-nodes="true"
     inkscape:snap-bbox-edge-midpoints="true"
     inkscape:snap-bbox-midpoints="true"
     inkscape:object-paths="true"
     inkscape:snap-intersection-paths="true"
     inkscape:window-width="2160"
     inkscape:window-height="1335"
     inkscape:window-x="0"
     inkscape:window-y="0"
     inkscape:window-maximized="1"
     inkscape:pagecheckerboard="0"
     inkscape:deskcolor="#d1d1d1"><inkscape:grid
       type="xygrid"
       id="grid815" /></sodipodi:namedview><metadata
     id="metadata5"><rdf:RDF><cc:Work
         rdf:about=""><dc:format>image/svg+xml</dc:format><dc:type
           rdf:resource="http://purl.org/dc/dcmitype/StillImage" /><dc:title /></cc:Work></rdf:RDF></metadata><g
     inkscape:label="Capa 1"
     inkscape:groupmode="layer"
     id="layer1"
     transform="translate(0,-284.29999)"><path
       id="rect2178"
       style="opacity:1;fill:#363c4d;stroke-width:0.529167;stroke-linecap:round;stroke-linejoin:round;stroke-miterlimit:1.8;paint-order:fill markers stroke;stop-color:#000000"
       d="M 0.79374999,284.82916 H 11.90625 c 0.439737,0 0.79375,0.35402 0.79375,0.79375 v 10.31875 c 0,0.43973 -0.354013,0.79375 -0.79375,0.79375 H 0.79374999 C 0.35401249,296.73541 0,296.38139 0,295.94166 v -10.31875 c 0,-0.43973 0.35401249,-0.79375 0.79374999,-0.79375 z" /><path
       id="rect2178-6"
       style="fill:#4b6477;stroke-width:0.529167;stroke-linecap:round;stroke-linejoin:round;stroke-miterlimit:1.8;paint-order:fill markers stroke;stop-color:#000000"
       d="M 0.79374996,285.09375 H 11.90625 c 0.293159,0 0.529167,0.23601 0.529167,0.52917 v 10.31874 c 0,0.29315 -0.236008,0.52916 -0.529167,0.52916 H 0.79374996 c -0.29315832,0 -0.52916664,-0.23601 -0.52916664,-0.52916 v -10.31874 c 0,-0.29316 0.23600832,-0.52917 0.52916664,-0.52917 z" /><path
       id="rect2922"
       style="opacity:1;fill:#363c4d;stroke-width:0.529167;stroke-linecap:round;stroke-linejoin:round;stroke-miterlimit:1.8;paint-order:fill markers stroke;stop-color:#000000"
       d="M 1.3229166,285.62289 H 11.377084 c 0.293158,0 0.529166,0.23601 0.529166,0.52917 v 9.26043 c 0,0.29316 -0.236008,0.52917 -0.529166,0.52917 H 1.3229166 c -0.2931583,0 -0.52916661,-0.23601 -0.52916661,-0.52917 v -9.26043 c 0,-0.29316 0.23600831,-0.52917 0.52916661,-0.52917 z" /><path
       id="rect2993"
       style="opacity:1;fill:#5abfff;stroke-width:0.529167;stroke-linecap:round;stroke-linejoin:round;stroke-miterlimit:1.8;paint-order:fill markers stroke;stop-color:#000000"
       d="M 1.3229166,285.88748 H 11.377083 c 0.146579,0 0.264583,0.11801 0.264583,0.26459 v 9.26042 c 0,0.14658 -0.118004,0.26458 -0.264583,0.26458 H 1.3229166 c -0.1465792,0 -0.2645833,-0.118 -0.2645833,-0.26458 v -9.26042 c 0,-0.14658 0.1180041,-0.26459 0.2645833,-0.26459 z" /><path
       id="rect3124"
       style="opacity:1;fill:#ddf3ff;stroke-width:0.529167;stroke-linecap:round;stroke-linejoin:round;stroke-miterlimit:1.8;paint-order:fill markers stroke;stop-color:#000000"
       d="m 1.5875,293.29584 h 9.525 v 1.85206 h -9.525 z" /><path
       id="rect3324"
       style="opacity:1;fill:#ddf3ff;fill-opacity:1;stroke:none;stroke-width:0.529167;stroke-linecap:round;stroke-linejoin:round;stroke-miterlimit:1.8;paint-order:fill markers stroke;stop-color:#000000"
       d="M 2.9104167 286.94582 C 2.7638377 286.94582 2.6458333 287.06383 2.6458333 287.21041 L 2.6458333 290.38541 C 2.6458333 290.53199 2.7638377 290.64999 2.9104167 290.64999 L 6.8791667 290.64999 C 7.0257457 290.64999 7.14375 290.53199 7.14375 290.38541 L 7.14375 287.21041 C 7.14375 287.06383 7.0257457 286.94582 6.8791667 286.94582 L 2.9104167 286.94582 z M 7.6729167 288.53332 L 7.6729167 290.38541 C 7.6729167 290.38541 7.6758459 291.17916 6.8791667 291.17916 L 5.55625 291.17916 L 5.55625 291.97291 C 5.55625 292.11949 5.6742545 292.23749 5.8208333 292.23749 L 9.7895833 292.23749 C 9.9361622 292.23749 10.054167 292.11949 10.054167 291.97291 L 10.054167 288.79791 C 10.054167 288.65133 9.9361622 288.53332 9.7895833 288.53332 L 7.6729167 288.53332 z " /></g></svg>
